packages/kaspersky-hexa-ui-icons/src/iconsSVGs/24/Response1.svg

<svg width="24" height="24" viewBox="0 0 24 24" fill="none" xmlns="http://www.w3.org/2000/svg">
<path fill-rule="evenodd" clip-rule="evenodd" d="M19 7.8501C21.7614 7.8501 24 10.0887 24 12.8501C24 15.6115 21.7614 17.8501 19 17.8501C16.581 17.8501 14.5633 16.1323 14.1 13.8501H7.39784L8.69073 15.143C9.08126 15.5335 9.08126 16.1667 8.69073 16.5572C8.30021 16.9477 7.66705 16.9477 7.27652 16.5572L4.27652 13.5572C3.886 13.1667 3.886 12.5335 4.27652 12.143L7.27652 9.14299C7.66705 8.75247 8.30021 8.75247 8.69073 9.14299C9.08126 9.53352 9.08126 10.1667 8.69073 10.5572L7.39784 11.8501H14.1C14.5633 9.56786 16.581 7.8501 19 7.8501ZM22 12.8501C22 11.1932 20.6569 9.8501 19 9.8501C17.3431 9.8501 16 11.1932 16 12.8501C16 14.507 17.3431 15.8501 19 15.8501C20.6569 15.8501 22 14.507 22 12.8501Z" fill="black"/>
<path d="M5.69331 7.89778L2.86231 10.7288C1.69074 11.9003 1.69074 13.7998 2.86231 14.9714L5.69331 17.8024C5.46671 17.8339 5.23525 17.8501 5 17.8501C2.23858 17.8501 0 15.6115 0 12.8501C0 10.0887 2.23858 7.8501 5 7.8501C5.23525 7.8501 5.46671 7.86634 5.69331 7.89778Z" fill="black"/>
</svg>

<svg xmlns="http://www.w3.org/2000/svg" width="24" height="24" fill="none" viewBox="0 0 24 24"><path fill="#000" fill-rule="evenodd" d="M19 7.8501c2.7614 0 5 2.2386 5 5s-2.2386 5-5 5c-2.419 0-4.4367-1.7178-4.9-4H7.3978l1.293 1.2929c.3905.3905.3905 1.0237 0 1.4142s-1.0237.3905-1.4143 0l-3-3c-.3905-.3905-.3905-1.0237 0-1.4142l3-3c.3905-.3905 1.0237-.3905 1.4142 0 .3906.3905.3906 1.0237 0 1.4142l-1.2929 1.2929H14.1c.4633-2.2822 2.481-4 4.9-4m3 5c0-1.6569-1.3431-3-3-3s-3 1.3431-3 3 1.3431 3 3 3 3-1.3431 3-3" clip-rule="evenodd"/><path fill="#000" d="m5.6933 7.8978-2.831 2.831c-1.1716 1.1715-1.1716 3.071 0 4.2426l2.831 2.831A5 5 0 0 1 5 17.8501c-2.7614 0-5-2.2386-5-5s2.2386-5 5-5c.2352 0 .4667.0162.6933.0477"/></svg>
